src/assets/receive-payment.svg

<svg width="97" height="97" viewBox="0 0 97 97" fill="none" xmlns="http://www.w3.org/2000/svg">
<g clip-path="url(#clip0_1838_14561)">
<path d="M6.5 0.499756C3.18629 0.499756 0.5 3.18605 0.5 6.49976V80.7798H5.84C5.91 79.1498 7.24 77.8498 8.88 77.8498C10.52 77.8498 11.85 79.1498 11.92 80.7798H16.55C16.62 79.1498 17.95 77.8498 19.59 77.8498C21.23 77.8498 22.56 79.1498 22.63 80.7798H27.74C27.81 79.1498 29.14 77.8498 30.78 77.8498C32.42 77.8498 33.75 79.1498 33.82 80.7798H38.93C39 79.1498 40.33 77.8498 41.97 77.8498C43.61 77.8498 44.94 79.1498 45.01 80.7798H50.12C50.19 79.1498 51.52 77.8498 53.16 77.8498C54.8 77.8498 56.13 79.1498 56.2 80.7798H61.54V6.49975C61.54 3.18604 58.8537 0.499756 55.54 0.499756H6.5Z" fill="#9498A2"/>
<path d="M21.7091 16.22C18.3954 16.22 15.7091 18.9063 15.7091 22.22V96.5H21.0491C21.1191 94.87 22.4491 93.57 24.0891 93.57C25.7291 93.57 27.0591 94.87 27.1291 96.5H31.7591C31.8291 94.87 33.1591 93.57 34.7991 93.57C36.4391 93.57 37.7691 94.87 37.8391 96.5H42.9491C43.0191 94.87 44.3491 93.57 45.9891 93.57C47.6291 93.57 48.9591 94.87 49.0291 96.5H54.1391C54.2091 94.87 55.5391 93.57 57.1791 93.57C58.8191 93.57 60.1491 94.87 60.2191 96.5H65.3291C65.3991 94.87 66.7291 93.57 68.3691 93.57C70.0091 93.57 71.3391 94.87 71.4091 96.5H76.7491V22.22C76.7491 18.9063 74.0628 16.22 70.7491 16.22H21.7091Z" fill="#CED0D6"/>
<path d="M35.1891 38.27C35.1891 36.26 34.1291 35.12 31.3091 34.33C29.2891 33.76 28.8391 33.39 28.8391 32.56C28.8391 31.98 29.1791 31.26 30.3991 31.26C31.8391 31.26 32.0891 32.11 32.2191 32.63H34.8991C34.7591 31.16 33.9191 29.71 31.5791 29.35V28.14H29.3291V29.37C27.5391 29.71 26.1391 30.9 26.1391 32.81C26.1391 34.59 27.0691 35.76 30.2591 36.68C32.0091 37.18 32.4991 37.63 32.4991 38.56C32.4991 39.32 32.0491 39.99 30.6591 39.99C29.5291 39.99 28.7791 39.38 28.5591 38.4H25.8791C26.0291 40.22 27.2791 41.56 29.4591 41.89V43.41H31.7191V41.89C33.7891 41.58 35.1791 40.39 35.1791 38.26L35.1891 38.27Z" fill="white"/>
<path d="M66.5991 48.95H25.8891V54.04H66.5991V48.95Z" fill="white"/>
<path d="M66.5991 59.12H25.8891V64.21H66.5991V59.12Z" fill="white"/>
<path d="M66.5991 69.3H25.8891V74.39H66.5991V69.3Z" fill="white"/>
<path d="M66.5991 79.48H25.8891V84.57H66.5991V79.48Z" fill="white"/>
<path d="M76.5 68.5C87.5457 68.5 96.5 59.5457 96.5 48.5C96.5 37.4543 87.5457 28.5 76.5 28.5C65.4543 28.5 56.5 37.4543 56.5 48.5C56.5 59.5457 65.4543 68.5 76.5 68.5Z" fill="#FF444F"/>
<path fill-rule="evenodd" clip-rule="evenodd" d="M73.5806 51.5022L83.8364 41.2552L86.6636 44.0848L73.5794 57.1578L66.3358 49.9142L69.1642 47.0858L73.5806 51.5022Z" fill="white"/>
</g>
<defs>
<clipPath id="clip0_1838_14561">
<rect width="96" height="96" fill="white" transform="translate(0.5 0.5)"/>
</clipPath>
</defs>
</svg>

<svg xmlns="http://www.w3.org/2000/svg" width="97" height="97" fill="none"><g clip-path="url(#a)"><path fill="#9498A2" d="M6.5.5a6 6 0 0 0-6 6v74.28h5.34a3.05 3.05 0 0 1 3.04-2.93c1.64 0 2.97 1.3 3.04 2.93h4.63a3.05 3.05 0 0 1 3.04-2.93c1.64 0 2.97 1.3 3.04 2.93h5.11a3.05 3.05 0 0 1 3.04-2.93c1.64 0 2.97 1.3 3.04 2.93h5.11a3.05 3.05 0 0 1 3.04-2.93c1.64 0 2.97 1.3 3.04 2.93h5.11a3.05 3.05 0 0 1 3.04-2.93c1.64 0 2.97 1.3 3.04 2.93h5.34V6.5a6 6 0 0 0-6-6z"/><path fill="#CED0D6" d="M21.71 16.22a6 6 0 0 0-6 6V96.5h5.34a3.05 3.05 0 0 1 3.04-2.93c1.64 0 2.97 1.3 3.04 2.93h4.63a3.05 3.05 0 0 1 3.04-2.93c1.64 0 2.97 1.3 3.04 2.93h5.11a3.05 3.05 0 0 1 3.04-2.93c1.64 0 2.97 1.3 3.04 2.93h5.11a3.05 3.05 0 0 1 3.04-2.93c1.64 0 2.97 1.3 3.04 2.93h5.11a3.05 3.05 0 0 1 3.04-2.93c1.64 0 2.97 1.3 3.04 2.93h5.34V22.22a6 6 0 0 0-6-6z"/><path fill="#fff" d="M35.19 38.27c0-2.01-1.06-3.15-3.88-3.94-2.02-.57-2.47-.94-2.47-1.77 0-.58.34-1.3 1.56-1.3 1.44 0 1.69.85 1.82 1.37h2.68c-.14-1.47-.98-2.92-3.32-3.28v-1.21h-2.25v1.23c-1.79.34-3.19 1.53-3.19 3.44 0 1.78.93 2.95 4.12 3.87 1.75.5 2.24.95 2.24 1.88 0 .76-.45 1.43-1.84 1.43-1.13 0-1.88-.61-2.1-1.59h-2.68c.15 1.82 1.4 3.16 3.58 3.49v1.52h2.26v-1.52c2.07-.31 3.46-1.5 3.46-3.63zM66.6 48.95H25.89v5.09H66.6zM66.6 59.12H25.89v5.09H66.6zM66.6 69.3H25.89v5.09H66.6zM66.6 79.48H25.89v5.09H66.6z"/><path fill="#FF444F" d="M76.5 68.5c11.046 0 20-8.954 20-20s-8.954-20-20-20-20 8.954-20 20 8.954 20 20 20"/><path fill="#fff" fill-rule="evenodd" d="m73.58 51.502 10.256-10.247 2.828 2.83-13.085 13.073-7.243-7.244 2.828-2.828z" clip-rule="evenodd"/></g><defs><clipPath id="a"><path fill="#fff" d="M.5.5h96v96H.5z"/></clipPath></defs></svg>
